src/badges/Avalon/LEVERAGED.svg

<svg width="48" height="48" viewBox="0 0 48 48" fill="none" xmlns="http://www.w3.org/2000/svg">
<rect width="48" height="48" rx="24" fill="#8626DB" style="fill:#8626DB;fill:color(display-p3 0.5272 0.1496 0.8590);fill-opacity:1;"/>
<path fill-rule="evenodd" clip-rule="evenodd" d="M23.989 28.4311L17.3555 35.0646L12.6769 30.408L19.3324 23.7525L12.6769 17.0971L17.3555 12.4404L23.989 19.0739L30.6445 12.4404L35.3231 17.0971L28.6676 23.7525L35.3231 30.408L30.6445 35.0646L23.989 28.4311Z" fill="white" style="fill:white;fill-opacity:1;"/>
</svg>

<svg width="48" height="48" fill="none" xmlns="http://www.w3.org/2000/svg"><rect width="48" height="48" rx="24" fill="color(display-p3 .5272 .1496 .859)"/><path fill-rule="evenodd" clip-rule="evenodd" d="m23.989 28.431-6.634 6.634-4.678-4.657 6.655-6.655-6.655-6.655 4.678-4.657 6.634 6.633 6.655-6.633 4.68 4.656-6.656 6.656 6.655 6.655-4.678 4.657-6.656-6.633Z" fill="#fff"/></svg>
